components/icon/svg/24/communication_call.svg

<?xml version="1.0" encoding="UTF-8"?>
<svg width="24px" height="24px" viewBox="0 0 24 24" version="1.1" xmlns="http://www.w3.org/2000/svg" xmlns:xlink="http://www.w3.org/1999/xlink">
    <!-- Generator: Sketch 64 (93537) - https://sketch.com -->
    <title>ic-db_communication_call_24</title>
    <desc>Created with Sketch.</desc>
    <g id="Symbols" stroke="none" stroke-width="1" fill="none" fill-rule="evenodd">
        <g id="24dp-Icon/Communication/Call" fill="#282D37">
            <path d="M6.53333675,2 C7.39806782,2 8.02913349,2.30379486 8.56669321,2.84135458 L8.56669321,2.84135458 L11.2776694,5.5758067 C11.6049402,5.92635453 11.7684761,6.3704083 11.7684761,6.88459154 C11.7684761,7.3986753 11.5815637,7.95961151 11.1375099,8.3802888 L11.1375099,8.3802888 L9.52483075,10.016245 C10.7868626,11.6989541 11.2776694,12.2131374 13.1240139,13.6855576 L13.1240139,13.6855576 L14.7132171,12.0496014 C15.1338944,11.6055477 15.6714542,11.3951593 16.2323904,11.3951593 C16.6530677,11.3951593 17.1204979,11.5120417 17.4242928,11.8392131 L17.4242928,11.8392131 L20.2053984,14.6670717 C20.7195816,15.2046314 20.976723,15.8590735 21,16.5835457 C20.976723,17.3080178 20.6962051,18.1026194 20.1353684,18.7336851 C18.6863246,20.4163943 17.4242928,21.2811253 15.4144123,21.2811253 C12.8435956,21.2811253 9.78197211,19.7152986 6.67359567,16.5367927 C3.35493033,13.054492 1.78910361,9.92283851 2.022769,7.11825693 C2.2564344,4.5941932 4.80387462,2 6.53333675,2 Z M6.65021919,3.98650401 C5.57519921,3.98650401 4.0326495,5.94973101 3.93914356,7.18838639 C3.58859573,11.979472 11.2075399,19.3412748 15.2274004,19.3412748 C16.8399801,19.3412748 17.4476693,18.873944 18.6863246,17.4716532 C18.9433665,17.1911354 19.060249,16.8873405 19.060249,16.5835457 C19.060249,16.3497808 18.966743,16.1394919 18.8499601,16.0226095 L18.8499601,16.0226095 L16.1622609,13.3116333 L13.9186155,15.5785557 C13.7317031,15.7655676 13.5446912,15.88245 13.3343028,15.88245 C12.5864542,15.88245 10.7168326,14.2931473 9.78197211,13.3816633 C8.9873705,12.5870617 7.32803783,10.5538047 7.32803783,9.89946203 C7.32803783,9.31514933 8.16939241,8.63743016 9.87547806,6.90796803 L9.87547806,6.90796803 L7.16440242,4.19689239 C7.0241435,4.05663347 6.86060757,3.98650401 6.65021919,3.98650401 Z" id="🎨-Color"></path>
        </g>
    </g>
</svg>

<svg width="24" height="24" xmlns="http://www.w3.org/2000/svg"><path d="M6.533 2c.865 0 1.496.304 2.034.841l2.71 2.735c.328.35.491.794.491 1.309 0 .514-.186 1.075-.63 1.495l-1.613 1.636c1.262 1.683 1.753 2.197 3.599 3.67l1.59-1.636c.42-.444.957-.655 1.518-.655.421 0 .888.117 1.192.444l2.781 2.828A2.83 2.83 0 0121 16.584a3.45 3.45 0 01-.865 2.15c-1.449 1.682-2.71 2.547-4.72 2.547-2.571 0-5.633-1.566-8.741-4.744-3.32-3.483-4.885-6.614-4.651-9.419C2.256 4.594 4.803 2 6.533 2zm.117 1.987c-1.075 0-2.617 1.963-2.71 3.201-.351 4.791 7.268 12.153 11.287 12.153 1.613 0 2.22-.467 3.46-1.87.256-.28.373-.584.373-.887a.818.818 0 00-.21-.561l-2.688-2.711-2.243 2.267c-.187.187-.374.303-.585.303-.748 0-2.617-1.589-3.552-2.5-.795-.795-2.454-2.828-2.454-3.483 0-.584.841-1.262 2.547-2.991l-2.71-2.711a.687.687 0 00-.515-.21z" fill="#282D37" fill-rule="evenodd"/></svg>
